P3
8 8
255
0 237 0 0 10 0 0 187 0 0 95 0 0 84 0 0 187 0 0 65 0 0 62 0 
0 59 0 0 73 0 0 19 0 0 233 0 0 87 0 0 138 0 0 204 0 0 83 0 
0 140 0 0 141 0 0 143 0 0 101 0 0 83 0 0 176 0 0 101 0 0 149 0 
0 74 0 0 206 0 0 104 0 0 21 0 0 182 0 0 9 0 0 176 0 0 189 0 
0 182 0 0 112 0 0 232 0 0 65 0 0 83 0 0 251 0 0 66 0 0 209 0 
0 58 0 0 115 0 0 4 0 0 19 0 0 230 0 0 111 0 0 243 0 0 168 0 
0 125 0 0 137 0 0 162 0 0 82 0 0 172 0 0 166 0 0 148 0 0 223 0 
0 93 0 0 178 0 0 14 0 0 129 0 0 103 0 0 139 0 0 101 0 0 62 0 
