P3
8 8
255
152 102 194 89 173 203 152 237 203 215 227 139 210 211 118 136 20 252 88 253 175 83 214 13 
95 246 170 169 82 179 236 89 7 231 215 116 104 248 25 99 140 79 133 17 111 25 70 23 
150 136 140 6 229 233 220 10 188 193 244 107 49 0 223 126 255 126 222 14 89 56 10 218 
114 113 233 222 242 135 16 64 41 51 44 96 68 1 120 53 189 111 63 91 43 211 217 18 
99 88 226 142 185 255 184 227 199 35 62 134 110 167 6 190 4 186 190 215 44 90 197 74 
209 199 52 11 100 203 152 142 18 163 207 119 94 24 69 165 215 157 102 51 135 145 11 31 
234 34 61 63 68 34 73 148 224 0 180 59 135 202 82 33 205 77 0 191 162 85 76 231 
46 111 198 94 73 57 99 83 189 119 136 220 151 50 43 89 118 178 74 97 155 220 68 21 
